X: 10812
Q: "Andante"
M: 2/4
L: 1/16
K: G
|: d2 |\
g3ab2g2 | a2f2e2d2 | g3ab2g2 | a3f d2z2 |\
g3ab2g2 | c'3a Hf2 a/g/f/e/ | d3B g3e | d4 G2 :|


